VolumeGrid/Assets.xcassets/AppIcon.appiconset/AppIcon.svg

<?xml version="1.0" encoding="UTF-8" standalone="no"?>
<!DOCTYPE svg PUBLIC "-//W3C//DTD SVG 1.1//EN" "http://www.w3.org/Graphics/SVG/1.1/DTD/svg11.dtd">
<svg width="100%" height="100%" viewBox="0 0 624 700" version="1.1" xmlns="http://www.w3.org/2000/svg" xmlns:xlink="http://www.w3.org/1999/xlink" xml:space="preserve" xmlns:serif="http://www.serif.com/" style="fill-rule:evenodd;clip-rule:evenodd;stroke-linejoin:round;stroke-miterlimit:2;">
    <g transform="matrix(1,0,0,1,-200,-200)">
        <g id="Ori">
            <g transform="matrix(1.266667,0,0,1.266667,486.666667,900)">
                <path d="M-100,-53.684L-100,-6.316C-100,-2.83 -102.83,0 -106.316,0L-153.684,0C-157.17,0 -160,-2.83 -160,-6.316L-160,-53.684C-160,-57.17 -157.17,-60 -153.684,-60L-106.316,-60C-102.83,-60 -100,-57.17 -100,-53.684Z" style="fill:rgb(238,238,238);"/>
                <path d="M0,-53.684L0,-6.316C0,-2.83 -2.83,0 -6.316,0L-53.684,0C-57.17,0 -60,-2.83 -60,-6.316L-60,-53.684C-60,-57.17 -57.17,-60 -53.684,-60L-6.316,-60C-2.83,-60 0,-57.17 0,-53.684Z" style="fill:rgb(238,238,238);"/>
                <path d="M100,-53.684L100,-6.316C100,-2.83 97.17,0 93.684,0L46.316,0C42.83,0 40,-2.83 40,-6.316L40,-53.684C40,-57.17 42.83,-60 46.316,-60L93.684,-60C97.17,-60 100,-57.17 100,-53.684Z" style="fill:rgb(238,238,238);"/>
                <path d="M200,-53.684L200,-6.316C200,-2.83 197.17,0 193.684,0L146.316,0C142.83,0 140,-2.83 140,-6.316L140,-53.684C140,-57.17 142.83,-60 146.316,-60L193.684,-60C197.17,-60 200,-57.17 200,-53.684Z" style="fill:rgb(238,238,238);"/>
            </g>
            <g transform="matrix(0.231626,0,0,0.231626,165.256125,107.205386)">
                <path d="M2222,2579C2180,2552 2158,2509 2158,2455C2158,2401 2170,2379 2237,2307C2376,2156 2481,1950 2526,1740C2552,1622 2552,1378 2526,1260C2479,1044 2368,831 2225,680C2171,623 2160,601 2160,548C2160,438 2274,368 2375,416C2446,450 2601,653 2690,832C2802,1056 2844,1238 2844,1500C2844,1762 2802,1944 2690,2168C2605,2338 2460,2533 2384,2581C2341,2607 2265,2606 2222,2579Z" style="fill:rgb(238,238,238);fill-rule:nonzero;"/>
                <path d="M1285,2534C1269,2525 1127,2390 970,2234L685,1951L465,1948C256,1945 243,1944 214,1923C152,1878 150,1867 150,1498C150,1121 151,1116 226,1073C263,1052 276,1050 475,1050L685,1050L965,769C1119,615 1262,480 1282,469C1303,459 1333,450 1350,450C1400,450 1457,485 1480,530C1500,568 1500,587 1500,1500C1500,2413 1500,2432 1480,2470C1445,2539 1353,2569 1285,2534Z" style="fill:rgb(238,238,238);fill-rule:nonzero;"/>
                <path d="M1812,2163C1768,2142 1738,2097 1733,2046C1727,1995 1741,1964 1804,1891C1864,1820 1907,1737 1930,1644C1978,1458 1930,1258 1804,1109C1727,1020 1714,972 1746,904C1780,832 1872,801 1945,836C2032,877 2177,1106 2222,1275C2239,1339 2243,1384 2243,1500C2243,1616 2239,1661 2222,1725C2177,1892 2032,2123 1947,2163C1903,2184 1855,2184 1812,2163Z" style="fill:rgb(238,238,238);fill-rule:nonzero;"/>
            </g>
        </g>
    </g>
</svg>

<svg width="1024" height="1024" viewBox="0 0 1024 1024" xmlns="http://www.w3.org/2000/svg">
    <g transform="translate(200,120) scale(0.2,0.2)"
       fill="#ccc" stroke="none">
        <path d="M2222 2579 c-42 -27 -64 -70 -64 -124 0 -54 12 -76 79 -148 139 -151
        244 -357 289 -567 26 -118 26 -362 0 -480 -47 -216 -158 -429 -301 -580 -54
        -57 -65 -79 -65 -132 0 -110 114 -180 215 -132 71 34 226 237 315 416 112 224
        154 406 154 668 0 262 -42 444 -154 668 -85 170 -230 365 -306 413 -43 26
        -119 25 -162 -2z"/>
        <path d="M1285 2534 c-16 -9 -158 -144 -315 -300 l-285 -283 -220 -3 c-209 -3
        -222 -4 -251 -25 -62 -45 -64 -56 -64 -425 0 -377 1 -382 76 -425 37 -21 50
        -23 249 -23 l210 0 280 -281 c154 -154 297 -289 317 -300 21 -10 51 -19 68
        -19 50 0 107 35 130 80 20 38 20 57 20 970 0 913 0 932 -20 970 -35 69 -127
        99 -195 64z"/>
        <path d="M1812 2163 c-44 -21 -74 -66 -79 -117 -6 -51 8 -82 71 -155 60 -71
        103 -154 126 -247 48 -186 0 -386 -126 -535 -77 -89 -90 -137 -58 -205 34 -72
        126 -103 199 -68 87 41 232 270 277 439 17 64 21 109 21 225 0 116 -4 161 -21
        225 -45 167 -190 398 -275 438 -44 21 -92 21 -135 0z"/>
    </g>
    <g transform="translate(484 900) scale(1.4)">
        <rect x="-160" y="-60" width="60" height="60" rx="8" fill="#ccc"/>
        <rect x="-60" y="-60" width="60" height="60" rx="8" fill="#ccc"/>
        <rect x="40" y="-60" width="60" height="60" rx="8" fill="#ccc"/>
        <rect x="140" y="-60" width="60" height="60" rx="8" fill="#ccc"/>
    </g>
</svg>
